X:734
T:Clanranald
S:Deaf Shepherd
Z:Nigel Gatherer
L:1/8
M:4/4
K:Em
Z | E3 B GEE^c | dDDA FDAF | E3   B GE B/c/d | FDAF BEE :|
f | geBA GFEg  | fdAG FEDf | geBA   GFE^c    | dBAF BEE  
f | geBA GFEg  | fdAG FEDf | g<bf<a efde     | BdAF BEE ||
<end>
<start>
